_includes/icons/color-airport.svg

<svg fill="#666" height="50" viewBox="0 0 48 48" width="50" xmlns="http://www.w3.org/2000/svg"><g fill="#2196f3"><path d="m32 44-6-2 .601563-8 5.398437 6z"/><path d="m42 34-15-7.398437-.199219-7-.199218-4.601563 15.398437 15.199219z"/><path d="m16 44 6-2-.601562-8-5.398438 6z"/><path d="m6 34 15-7.398437.199219-7 .199219-4.601563-15.398438 15.199219z"/></g><path d="m24 4c-2.199219 0-4 1.800781-4 4v33c0 1.101563.898438 2 2 2h4c1.101563 0 2-.898437 2-2v-33c0-2.199219-1.800781-4-4-4z" fill="#64b5f6"/><path d="m23 34h2v9h-2z" fill="#2196f3"/></svg>

<svg xmlns="http://www.w3.org/2000/svg" viewBox="0 0 48 48" width="50" height="50" fill="#666"><path d="M 32 44 L 26 42 L 26.601563 34 L 32 40 Z" fill="#2196f3"/><path d="M 42 34 L 27 26.601563 L 26.800781 19.601563 L 26.601563 15 L 42 30.199219 Z" fill="#2196f3"/><path d="M 16 44 L 22 42 L 21.398438 34 L 16 40 Z" fill="#2196f3"/><path d="M 6 34 L 21 26.601563 L 21.199219 19.601563 L 21.398438 15 L 6 30.199219 Z" fill="#2196f3"/><path d="M 24 4 C 21.800781 4 20 5.800781 20 8 L 20 41 C 20 42.101563 20.898438 43 22 43 L 26 43 C 27.101563 43 28 42.101563 28 41 L 28 8 C 28 5.800781 26.199219 4 24 4 Z" fill="#64b5f6"/><path d="M 23 34 L 25 34 L 25 43 L 23 43 Z" fill="#2196f3"/></svg>
